X:1
T:O LORD, My God, Most Earnestly
T:Text: Psalm 63; vers. Psalter 1912; rev. Psalter Hymnal, 1987 Tune: George C. Stebbins, 1878
T:CMD THE GREEN HILL www.hymnary.org/text/o_lord_my_god_most_earnestly
T:O LORD, My God, Most Earnestly
T:This hymn is in the public domain. You may freely use this score for personal and congregational worship. If you reproduce the score, please credit Hymnary.org as the source. 
T:This hymn is in the public domain. You may freely use this score for personal and congregational worship. If you reproduce the score, please credit Hymnary.org as the source. 
Z:This hymn is in the public domain. You may freely use this score for personal and congregational worship. If you reproduce the score, please credit Hymnary.org as the source.
%%score ( 1 2 ) ( 3 4 )
L:1/8
M:6/8
K:Eb
V:1 treble nm="SOPRANO ALTO" snm="S. A."
V:2 treble 
V:3 bass nm="TENOR BASS" snm="T. B."
V:4 bass 
V:1
"^1""^2""^3" G | G2 G A2 G | G2 F E2 G | B2 B B2 A | G3- G2 | G | G2 G A2 G | G2 F E2 G | %8
w: O|LORD my God, most|ear- nest- ly I|seek your ho- ly|face, *|with-|in your house a-|gain to see the|
w: The|lov- ing kind- ness|of my God is|more than life to|me, *|so|I will praise you|all my days and|
w: Be-|neath the shad- ow|of your wings I|sing my joy and|praise. *|Your|right hand is my|strong sup- port through|
 B2 =A G2 A | B3- B2 | B | d2 c B2 A | G2 A B2 B | c2 c B2 =A | B3- B2 |1 B | G2 A B2 e | %17
w: glo- ries of your|grace. *|A-|part from you I|long and thirst, and|naught can sat- is-|fy; *|I|wan- der in a|
w: pray con- tin ual-|ly. *|In|you my soul is|sat- is- fied, my|dark- ness turns to|light, *|and|joy- ful med- i-|
w: trou- bled nights and|days. *|All|those who seek my|life will fall; my|life is in your|hand. *|God's|king and peo- ple|
 e2 =A B2 c | BAG G2 F | E3- E2 x |] %20
w: des- ert land where|all * the streams are|dry. *|
w: ta- tions fill the|watch- * es of the|night. *|
w: will re- joice; in|vic- * tory they will|stand. *|
V:2
 E | E2 E E2 E | D2 B, B,2 E | E2 E D2 D | E3- E2 | E | E2 E E2 E | D2 D C2 G | F2 F E2 E | %9
 D3- D2 | F | A2 A F2 E | E2 E E2 E | E2 G F2 E | (D2 E F2) |1 D | E2 D E2 E | E2 E E2 E | %18
 E2 E D2 B, | B,3- B,2 x |] %20
V:3
 B, | B,2 B, C2 B, | B,2 A, G,2 B, | G,2 G, F,2 B, | B,3- B,2 | B, | B,2 B, C2 B, | B,2 A, G,2 C | %8
 D2 C C2 C | B,3- B,2 | D | F2 E D2 C | B,2 F, G,2 G, | G,2 C D2 C | B,3- B,2 |1 B, | %16
 B,2 B, B,2 G, | ^F,2 F, G,2 F, | G,CB, B,2 A, | G,3- G,2 x |] %20
V:4
 E, | E,2 E, E,2 E, | B,,2 B,, E,2 E, | B,,2 B,, B,,2 B,, | E,3- E,2 | E, | E,2 E, E,2 E, | %7
 B,,2 B,, C,2 E, | F,2 F, F,2 F, | B,,3- B,,2 | B, | B,2 B, B,,2 B,, | E,2 E, E,2 E, | %13
 C,2 E, F,2 F, | B,,3- B,,2 |1 B,, | E,2 F, G,2 E, | _C,2 C, B,,2 =A,, | B,,2 B,, B,,2 B,, | %19
 E,3- E,2 x |] %20

